packages/kaspersky-hexa-ui-icons/src/iconsSVGs/16/Store.svg

<svg width="16" height="16" viewBox="0 0 16 16" fill="none" xmlns="http://www.w3.org/2000/svg">
<path fill-rule="evenodd" clip-rule="evenodd" d="M8.00044 1.05005C6.45357 1.05005 5.19958 2.30403 5.19958 3.8509V3.88091H4.84648C3.49339 3.88091 2.39648 4.97781 2.39648 6.33091V12.5C2.39648 13.8531 3.49338 14.95 4.84648 14.95H11.1544C12.5075 14.95 13.6044 13.8531 13.6044 12.5V6.3309C13.6044 4.97781 12.5075 3.88091 11.1544 3.88091H10.8013V3.8509C10.8013 2.30403 9.54731 1.05005 8.00044 1.05005ZM9.50129 5.18091V6.61237C9.50129 6.97136 9.79231 7.26237 10.1513 7.26237C10.5103 7.26237 10.8013 6.97136 10.8013 6.61237V5.18091H11.1544C11.7895 5.18091 12.3044 5.69578 12.3044 6.3309V12.5C12.3044 13.1352 11.7895 13.65 11.1544 13.65H4.84648C4.21136 13.65 3.69648 13.1352 3.69648 12.5V6.33091C3.69648 5.69578 4.21136 5.18091 4.84648 5.18091H5.19958V6.61237C5.19958 6.97136 5.4906 7.26237 5.84959 7.26237C6.20857 7.26237 6.49959 6.97136 6.49959 6.61237V5.18091H9.50129ZM9.50129 3.88091V3.8509C9.50129 3.022 8.82934 2.35005 8.00044 2.35005C7.17154 2.35005 6.49959 3.022 6.49959 3.8509V3.88091H9.50129Z" fill="black"/>
</svg>

<svg xmlns="http://www.w3.org/2000/svg" width="16" height="16" fill="none" viewBox="0 0 16 16"><path fill="#000" fill-rule="evenodd" d="M8.0004 1.05c-1.5468 0-2.8008 1.254-2.8008 2.8009v.03h-.3531c-1.3531 0-2.45 1.097-2.45 2.45V12.5c0 1.3531 1.0969 2.45 2.45 2.45h6.3079c1.3531 0 2.45-1.0969 2.45-2.45V6.3309c0-1.353-1.0969-2.45-2.45-2.45h-.3531v-.03c0-1.5469-1.254-2.8009-2.8009-2.8009m1.5009 4.131v1.4314a.65.65 0 0 0 1.3 0V5.1809h.3531c.6351 0 1.15.5149 1.15 1.15V12.5c0 .6352-.5149 1.15-1.15 1.15h-6.308c-.635 0-1.15-.5148-1.15-1.15V6.331c0-.6352.515-1.15 1.15-1.15h.3532v1.4314a.65.65 0 0 0 1.3 0V5.1809zm0-1.3v-.0301c0-.8289-.672-1.5009-1.5009-1.5009s-1.5008.672-1.5008 1.5009v.03z"/></svg>
